X:1
T:Oh Killarney, lovely lake
M:6/8
L:1/8
R:Air
N:"Mod.: and well marked time."
B:Joyce - Old Irish Folk Music and Songs (1909, No. 668)
Z:AK/Fiddler's Companion
K:G
G/A/|B2B c2c|dgB !fermata!A2 G/>A/|B/dc/B/A/ GcB|AGG G2:||
G/>B/|ddd dc/B/A|Ggg !fermata!g2 G/B/|d=fe dBB/A/|Egg g2 d/e/|
=ffe/d/ eed/c/|dB/<g/d/<B/ {GAG}!fermata!B G>A|B/dc/B/A/ GcB|AGG !fermata!G2||

